X:1
T:You that wont to my pipe's sound - Morley
T:#
%%score { 1 | 2 } 3 4 5
L:1/8
Q:1/4=120
M:4/4
K:C
V:1 treble nm="Soprano I" snm="S"
V:2 treble 
V:3 treble nm="Alto" snm="A"
V:4 treble-8 nm="Tenor" snm="T"
V:5 bass nm="Bass" snm="B"
V:1
 z4 z2"^You that wont to my pipe's sound" cd | e2 e2 f2 d2 | %2
w: You that|wont to my pipe's|
w: ||
w: Lo tri-|umph- ing brave comes|
 e4 z2 e"^Thomas Morley \n(1557-1603)"e | d2 d2 c2 c2 |[M:4/4] B6 ^GG | A2 ^G2 A2 B2 | c6 BA | %7
w: sound, Dain- ti-|ly to tread your|ground, Jol- ly|shep- herds and nymphs|sweet. * *|
w: ||||* Li- rum|
w: he, All in|pomp and ma- jes-|ty, Mon- arch|of the world and|king. * *|
 ^G2 A2 G4 | A4 z2 ed | c2 c2 c2 B2 | c4 z2 cc | B2 B2 A2 A2 | ^G6 BB | c2 B2 c2 d2 | e6 dc | %15
w: |* You that|wont to my pipe's|sound, Dain- ti-|ly to tread your|ground, Jol- ly|shep- herds and nymphs|sweet. * *|
w: li- rum li-|rum. * *||||||* Li- rum|
w: |* Lo tri-|umph- ing brave comes|he, All in|pomp and ma- jes-|ty, Mon- arch|of the world and|king. * *|
 B2 A2 B4 | A8 |: c2 Ac B2 c2 | e2 ed d2 d2 | ccdc B2 ^c2 | z2 =c2 B3 B | A2 A2 ^G4 | c2 c2 BABc | %23
w: ||Here met to- ge- ther|un- der the wea- ther,|Hand in hand u- ni- ting,|The love- ly|god come greet.||
w: li- rum li-|rum.||||||Li- rum, li- rum, li- rum,|
w: ||Let who- so list him,|dare to re- sist him,|We our voice u- ni- ting,|Of his high|acts will sing.||
 d2 d2 cded | c2 c2 B2 A2 | ^G2 A2 G4 | A8 :| %27
w: ||||
w: li- rum, li- rum, li- rum,|li- rum, li- rum,|li- rum, li-|rum.|
w: ||||
V:2
 z4 z2 ed | c2 c2 c2 B2 | c4 z2 cc | B2 B2 A2 A2 |[M:4/4] ^G6 BB | c2 B2 c2 d2 | e6 dc | B2 A2 B4 | %8
w: You that|wont to my pipe's|sound, Dain- ti-|ly to tread your|ground, Jol- ly|shep- herds and nymphs|sweet. * *||
w: ||||||* Li- rum|li- rum li-|
w: Lo tri-|umph- ing brave comes|he, All in|pomp and ma- jes-|ty, mon- arch|of the world and|king. * *||
 A4 z2 cd | e2 e2 f2 d2 | e4 z2 ee | d2 d2 c2 c2 | B6 ^GG | A2 ^G2 A2 B2 | c6 BA | ^G2 A2 G4 | %16
w: * You that|wont to my pipe's|sound, Dain- ti-|ly to tread your|ground, Jol- ly|shep- herds and nymphs|sweet. * *||
w: rum. * *||||||* Li- rum|li- rum li-|
w: * Lo tri-|umph- ing brave comes|he, All in|pomp and ma- jes-|ty, Mon- arch|of the world and|king. * *||
 A8 |: z8 | c2 cB A2 B2 | eefe e2 e2 | z2 e2 d3 d | c2 c2 B4 | e2 e2 d3 e | f2 f2 edcd | %24
w: ||Un- der the wea- ther,|Hand in hand u- ni- ting,|The love- ly|god come greet.|||
w: rum.||||||Li- rum, li- rum,|li- rum, li- rum, li- rum,|
w: ||Dare to re- sist him,|We our voice u- ni- ting,|Of his high|acts will sing.|||
 e2 e4 d2- | d2 c2 B4 | ^c8 :| %27
w: |||
w: li- rum, li\-|* rum, li-|rum.|
w: |||
V:3
 z2 CD E4- | E2 G2 A2 G2 | G4 z2 GG | G2 G2 E2 E2 |[M:4/4] E6 EE | E2 E2 E2 G2 | G6 FE | %7
w: You that wont|* to my pipe's|sound, Dain- ti-|ly to tread your|ground, Jol- iy|shep- herds and Nymphs|sweet. * *|
w: ||||||* Li- rum|
w: Lo tri- umph\-|* ing brave comes|he, All in|pomp and ma- jes-|ty, Mon- arch|of the world and|king. * *|
 E2 A,2 E4 | E2 CD E4- | E2 G2 A2 G2 | G4 z2 GG | G2 G2 E2 E2 | E6 EE | E2 E2 E2 G2 | G6 FE | %15
w: |* You that wont|* to my pipe's|sound, Dain- ti-|ly to tread your|ground, Jol- ly|shep- herds and nymphs|sweet. * *|
w: li- rum li-|rum. * * *||||||* Li- rum|
w: |* Lo tri- umph\-|* ing brave comes|he, All in|pomp and ma- jes-|ty, Mon- arch|of the world and|king. * *|
 E2 A,2 E4 | E8 |: E2 FE G2 G2 | G2 GG ^F2 G2 | AAAA ^G2 A2 | z2 G2 G3 G | E2 E2 E4 | G2 G2 G2 G2 | %23
w: ||Here met to- ge- ther|un- der the wea- ther,|Hand in hand u- ni- ting,|The love- ly|god come greet.||
w: li- rum li-|rum.||||||Li- rum, li- rum,|
w: ||Let who- so list him,|dare to re- sist him,|We our voice u- ni- ting,|Of his high|acts will sing.||
 FG A4 A2 | A3 A G2 D2 | E8 | E8 :| %27
w: ||||
w: li- rum, li- rum,|li- rum, li- rum,|li-|rum.|
w: ||||
V:4
 A3 B c4- | c2 e2 d2 d2 | c4 z2 cc | d2 B2 c3 A |[M:4/4][K:treble-8] B6 BB | A2 B2 A2 d2 | c6 FA | %7
w: You that wont|* to my pipe's|sound, Dain- ti-|ly to tread your|ground, Jol- ly|shep- herds and nymphs|sweet. * *|
w: ||||||* Li- rum|
w: Lo tri- umph\-|* ing brave comes|he, All in|pomp and ma- jes-|ty, Mon- arch|of the world and|king. * *|
 B2 d2 B4 | ^c2 AB =c4- | c2 e2 d2 d2 | c4 z2 cc | d2 B2 c3 A | B6 BB | A2 B2 A2 d2 | c6 FA | %15
w: |* You that wont|* to my pipe's|sound, Dain- ti-|ly to tread your|ground, Jol- ly|shep- herds and nymphs|sweet. * *|
w: li- rum li-|rum. * * *||||||* Li- rum|
w: |* Lo tri- umph\-|* ing brave comes|he, All in|pomp and ma- jes-|ty, Mon- arch|of the world and|king. * *|
 B2 d2 B4 | ^c8 |: c2 cc d2 e2 | c2 cG d2 G2 | ccAe e2 e2 | z2 e2 B2 G2 | c2 A2 B4 | z2 GA Bc d2 | %23
w: ||Here met to- ge- ther|un- der the wea- ther,|Hand in hand u- ni- ting,|The love- ly|god come greet.||
w: li- rum li-|rum.||||||Li- rum, li- rum, li-|
w: ||Let who- so list him,|dare to re- sist him,|We our voice u- ni- ting,|Of his high|acts will sing.||
 d2 AB cA c2- | c2 c2 G2 A2 | B2 A2 B4 | A8 :| %27
w: ||||
w: rum, li- rum, li- rum, li\-|* rum, li- rum,|li- rum, li-|rum.|
w: ||||
V:5
 z4 z2 A,B, | C2 C2 F,2 G,2 | C,4 z2 C,C, | G,2 G,2 A,2 A,,2 |[M:4/4] E,6 E,E, | A,2 E,2 A,2 G,2 | %6
w: You that|wont to my pipe's|sound, Dain- ti-|ly to tread your|ground, Jol- ly|shep- herds and nymphs|
w: ||||||
w: Lo tri-|umph- ing brave comes|he, All in|pomp and ma- jes-|ty, Mon- arch|of the world and|
 C,6 D,A,, | E,2 F,2 E,4 | A,,4 z2 A,B, | C2 C2 F,2 G,2 | C,4 z2 C,C, | G,2 G,2 A,2 A,,2 | %12
w: sweet. * *||* You that|wont to my pipe's|sound, Dain- ti-|ly to tread your|
w: * Li- rum|li- rum li-|rum. * *||||
w: king. * *||* Lo tri-|umph- ing brave comes|he, All in|pomp and ma- jes-|
 E,6 E,E, | A,2 E,2 A,2 G,2 | C,6 D,A,, | E,2 F,2 E,4 | A,,8 |: A,2 F,A, G,2 C,2 | z8 | %19
w: ground, Jol- ly|shep- herds and nymphs|sweet. * *|||Here met to- ge- ther,||
w: ||* Li- rum|li- rum li-|rum.|||
w: ty, Mon- arch|of the world and|king. * *|||Let who- so list him,||
 A,,A,,D,A,, E,2 A,,2 | z2 C,2 G,,3 G,, | A,,2 A,,2 E,4 | C,D,E,^F, G,2 G,2 | D,E,F,G, A,2 A,2 | %24
w: Hand in hand u- ni- ting,|The love- ly|god come greet.|||
w: |||Li- rum, li- rum, li- rum,|li- rum, li- rum, li- rum,|
w: We our voice u- ni- ting,|Of his high|acts will sing.|||
 A,,B,,C,D, E,2 F,2 | E,8 | A,,8 :| %27
w: |||
w: li- rum, li- rum, li- rum,|li-|rum.|
w: |||

